src/assets/icon-linkedin.svg

<svg xmlns="http://www.w3.org/2000/svg" viewBox="0 0 50 50"><path d="M.56.49v49h49v-49Zm15.38 40.67c0 .44 0 .44-.44.44H9.35c-.33 0-.42-.1-.42-.41v-21.4c0-.3.08-.42.41-.41h6.16c.43 0 .44 0 .44.43v21.35Zm-3.52-24.7a4 4 0 1 1 4-4 4 4 0 0 1-4 4ZM41.34 41.6h-6.22c-.34 0-.41-.13-.41-.43V31.08a15.21 15.21 0 0 0-.22-3.37 3 3 0 0 0-2.11-2.58 4.54 4.54 0 0 0-3 .18 3.36 3.36 0 0 0-2 2.63 12.57 12.57 0 0 0-.25 2.2v11c0 .47 0 .47-.46.47h-6.09c-.32 0-.42-.07-.42-.41V19.79c0-.3.07-.4.39-.4h5.93c.32 0 .39.11.39.4v2.5a7.14 7.14 0 0 1 4.13-3.1 9.65 9.65 0 0 1 6.55.42 6.25 6.25 0 0 1 3.53 4.31 13 13 0 0 1 .57 3.66c0 4.55 0 9.11.07 13.67-.01.28-.11.36-.38.35Z" style="fill:#e88562"/></svg>

<svg xmlns="http://www.w3.org/2000/svg" viewBox="0 0 50 50"><defs><style>.a{fill:#e88562;}</style></defs><title>icon-</title><path class="a" d="M.56.49v49h49V.49ZM15.94,41.16c0,.44,0,.44-.44.44-2.05,0-4.1,0-6.15,0-.33,0-.42-.1-.42-.41q0-10.71,0-21.4c0-.3.08-.42.41-.41H15.5c.43,0,.44,0,.44.43V41.16Zm-3.52-24.7a4,4,0,1,1,4-4A4,4,0,0,1,12.42,16.46ZM41.34,41.6c-2.08,0-4.15,0-6.22,0-.34,0-.41-.13-.41-.43q0-5,0-10.09a15.21,15.21,0,0,0-.22-3.37,3,3,0,0,0-2.11-2.58,4.54,4.54,0,0,0-3,.18,3.36,3.36,0,0,0-2,2.63,12.57,12.57,0,0,0-.25,2.2c0,3.66,0,7.32,0,11,0,.47,0,.47-.46.47-2,0-4.06,0-6.09,0-.32,0-.42-.07-.42-.41q0-10.71,0-21.41c0-.3.07-.4.39-.4h5.93c.32,0,.39.11.39.4,0,.84,0,1.67,0,2.5A7.14,7.14,0,0,1,31,19.19a9.65,9.65,0,0,1,6.55.42,6.25,6.25,0,0,1,3.53,4.31,13,13,0,0,1,.57,3.66c0,4.55,0,9.11.07,13.67C41.71,41.53,41.61,41.61,41.34,41.6Z"/></svg>
